apps/64/applications-apps.svg

<svg xmlns="http://www.w3.org/2000/svg" style="isolation:isolate" width="256" height="256"><g filter="url(#a)"><linearGradient id="b" x1=".25" y1=".036" x2=".75" y2=".844" gradientTransform="matrix(244.648 0 0 228.338 5.676 11.947)" gradientUnits="userSpaceOnUse"><stop offset="0%" stop-color="#2f5fdd"/><stop offset="100%" stop-color="#5884f4"/></linearGradient><path d="M165.685 11.947c74.055 0 84.639 10.557 84.639 84.544v59.251c0 73.986-10.584 84.543-84.639 84.543h-75.37c-74.055 0-84.639-10.557-84.639-84.543V96.491c0-73.987 10.584-84.544 84.639-84.544h75.37z" fill="url(#b)"/></g><defs><filter id="a" x="-200%" y="-200%" width="400%" height="400%" filterUnits="objectBoundingBox" color-interpolation-filters="sRGB"><feGaussianBlur xmlns="http://www.w3.org/2000/svg" in="SourceGraphic" stdDeviation="4.294"/><feOffset xmlns="http://www.w3.org/2000/svg" dy="4" result="pf_100_offsetBlur"/><feFlood xmlns="http://www.w3.org/2000/svg" flood-color="#000" flood-opacity=".4"/><feComposite xmlns="http://www.w3.org/2000/svg" in2="pf_100_offsetBlur" operator="in" result="pf_100_dropShadow"/><feBlend xmlns="http://www.w3.org/2000/svg" in="SourceGraphic" in2="pf_100_dropShadow"/></filter></defs><path d="M5.676 126.116v29.626c0 73.986 10.584 84.543 84.639 84.543h75.37c74.055 0 84.639-10.557 84.639-84.543v-29.626H5.676z" fill="#FFF" opacity=".1"/><path d="M128 11.947v228.338h37.685c74.055 0 84.639-10.557 84.639-84.543V96.491c0-73.987-10.584-84.544-84.639-84.544H128z" fill="#FFF" opacity=".2"/><path d="M188.296 194.921a5.7 5.7 0 0 1-3.428-1.797c-2.048-2.197-5.416-8.653-8.18-15.679-1.551-3.943-4.521-12.628-4.521-13.221 0-.187 1.959-1.481 4.354-2.875l4.354-2.536.683.642c2.704 2.537 10.491 14.169 15.031 22.45 1.816 3.312 1.998 3.785 1.991 5.151-.01 1.818-.582 3.089-2.2 4.889-1.94 2.158-5.284 3.388-8.084 2.976zm-129.399-2.162c.082-.222 1.407-6.199 2.945-13.281 1.538-7.082 2.829-12.919 2.87-12.972.139-.178 14.051 9.581 14.048 9.855-.002.148-4.023 3.605-8.936 7.68-11.063 9.176-11.109 9.212-10.927 8.718zm14.734-24.986c-3.877-2.68-7.018-4.986-6.98-5.124.09-.331 33.392-56.702 33.667-56.989.151-.158 14.703 8.992 15.385 9.674.147.147-34.479 57.186-34.753 57.25-.149.035-3.443-2.13-7.319-4.811zm91.4-14.896c-2.657-4.481-4.792-8.174-4.744-8.208.473-.334 10.543-6.123 10.651-6.123.167 0 8.62 16.837 8.496 16.924-1.09.76-9.159 5.572-9.33 5.564-.132-.007-2.415-3.677-5.073-8.157zm-109.285-.845c-.092-.783-.131-7.091-.087-14.019l.081-12.596 13.96.087c7.679.044 13.993.114 14.033.153.039.035-3.656 6.309-8.212 13.935l-8.282 13.866H55.914l-.168-1.426zm41.875 1.021c0-.069 3.792-6.354 8.427-13.96l8.426-13.83h29.911l7.995 13.316c4.397 7.324 8.152 13.606 8.343 13.96l.347.645h-31.724c-17.449 0-31.725-.061-31.725-.131zm81.607-5.901c-2.241-4.61-4.486-9.219-6.736-13.825l-3.807-7.793 10.348-.001c5.691 0 12.818-.078 15.837-.178l5.489-.178v28.007h-18.203l-2.928-6.031v-.001zm-23.104-8.945c-6.13-9.657-12.373-21.003-19.877-36.121-5.953-11.994-11.681-24.392-14.045-30.4-3.426-8.704-4.243-14.115-2.211-14.625 3.253-.816 9.618 6.57 18.678 21.673 7.098 11.832 18.455 32.508 27.121 49.375 1.609 3.131 3.212 6.199 3.562 6.818l.638 1.125-5.401 3.145c-2.971 1.729-5.5 3.144-5.621 3.144-.121 0-1.401-1.861-2.844-4.134zm-46.922-29.923l-7.53-4.965.711-1.126c.391-.619 2.363-3.764 4.382-6.987a974.945 974.945 0 0 1 3.742-5.946c.039-.044 3.431 2.127 7.538 4.831l7.468 4.916-1.112 1.81c-.611.996-2.45 4.007-4.086 6.69-1.637 2.684-3.113 5.074-3.28 5.311-.262.371-1.336-.251-7.833-4.534zm9.61-16.118c-3.902-2.549-7.095-4.755-7.095-4.903 0-1.075 3.226-4.067 4.816-4.466 2.616-.656 6.907 1.022 9.297 3.637 1.847 2.02 2.252 3.009 2.079 5.079-.13 1.562-1.403 5.287-1.806 5.287-.108 0-3.388-2.086-7.291-4.634z" fill="#FFF"/><g opacity=".4"><linearGradient id="c" x1=".517" x2=".517" y2="1" gradientTransform="matrix(244.65 0 0 228.34 5.68 11.95)" gradientUnits="userSpaceOnUse"><stop offset="0%" stop-color="#fff"/><stop offset="12.5%" stop-opacity=".098" stop-color="#fff"/><stop offset="92.5%" stop-opacity=".098"/><stop offset="100%" stop-opacity=".498"/></linearGradient><path d="M165.068 11.951c4.328-.01 8.656.04 12.984.138 3.875.078 7.75.226 11.626.452 3.453.196 6.905.481 10.348.854 3.06.335 6.118.786 9.148 1.346a80.47 80.47 0 0 1 8.046 1.916 53.64 53.64 0 0 1 7.023 2.584 40.413 40.413 0 0 1 6.06 3.35 35.176 35.176 0 0 1 5.134 4.215 35.072 35.072 0 0 1 4.22 5.119 41.692 41.692 0 0 1 3.363 6.042 55.982 55.982 0 0 1 2.597 7.005 80.224 80.224 0 0 1 1.918 8.037 124.43 124.43 0 0 1 1.348 9.127c.374 3.439.659 6.878.856 10.326.226 3.861.373 7.732.462 11.593.088 4.323.138 8.646.128 12.96v58.21c.01 4.324-.04 8.637-.128 12.96a325.177 325.177 0 0 1-.462 11.593 200.984 200.984 0 0 1-.856 10.326 124.691 124.691 0 0 1-1.348 9.137 80.687 80.687 0 0 1-1.918 8.027 55.414 55.414 0 0 1-2.597 7.005 41.18 41.18 0 0 1-3.364 6.042 34.559 34.559 0 0 1-4.22 5.119 35.177 35.177 0 0 1-5.134 4.215 40.412 40.412 0 0 1-6.059 3.35 55.138 55.138 0 0 1-7.023 2.594 77.806 77.806 0 0 1-8.046 1.906 120 120 0 0 1-9.148 1.346c-3.443.373-6.895.658-10.348.854-3.875.226-7.75.374-11.626.462-4.328.088-8.656.138-12.984.128H90.942c-4.328.01-8.656-.04-12.984-.128a328.387 328.387 0 0 1-11.626-.462 203.003 203.003 0 0 1-10.348-.854 120 120 0 0 1-9.148-1.346 77.806 77.806 0 0 1-8.046-1.906 55.139 55.139 0 0 1-7.023-2.594 40.413 40.413 0 0 1-6.06-3.35 35.176 35.176 0 0 1-5.134-4.215 34.56 34.56 0 0 1-4.22-5.119 41.183 41.183 0 0 1-3.363-6.042 55.415 55.415 0 0 1-2.597-7.005 80.682 80.682 0 0 1-1.918-8.027 124.688 124.688 0 0 1-1.348-9.137 200.993 200.993 0 0 1-.856-10.326 325.212 325.212 0 0 1-.462-11.593 569.197 569.197 0 0 1-.128-12.96v-58.21c-.01-4.314.04-8.637.128-12.96.089-3.86.236-7.732.462-11.593.197-3.448.482-6.887.856-10.326.335-3.055.787-6.101 1.348-9.127a80.219 80.219 0 0 1 1.918-8.037 55.983 55.983 0 0 1 2.597-7.005 41.695 41.695 0 0 1 3.364-6.042 35.072 35.072 0 0 1 4.22-5.119 35.176 35.176 0 0 1 5.134-4.215 40.413 40.413 0 0 1 6.059-3.35 53.64 53.64 0 0 1 7.023-2.584 80.47 80.47 0 0 1 8.046-1.916 125.11 125.11 0 0 1 9.148-1.346c3.443-.373 6.895-.658 10.348-.854 3.875-.226 7.75-.374 11.626-.452 4.328-.098 8.656-.148 12.984-.138h74.126zm.01 4.009c4.298-.01 8.597.039 12.895.127 3.827.089 7.653.236 11.48.452 3.383.197 6.766.472 10.13.845 2.971.315 5.932.747 8.863 1.297a75.943 75.943 0 0 1 7.653 1.818 50.493 50.493 0 0 1 6.501 2.397 37.038 37.038 0 0 1 5.47 3.026 30.383 30.383 0 0 1 4.524 3.724 31.05 31.05 0 0 1 3.738 4.519 37.271 37.271 0 0 1 3.03 5.443 51.46 51.46 0 0 1 2.4 6.494 75.563 75.563 0 0 1 1.829 7.634c.54 2.928.974 5.875 1.298 8.842.374 3.36.65 6.73.846 10.11.217 3.822.374 7.634.453 11.456.088 4.293.137 8.577.137 12.87v58.212c0 4.293-.049 8.577-.137 12.87a317.503 317.503 0 0 1-.453 11.456c-.196 3.38-.472 6.75-.846 10.12a121.689 121.689 0 0 1-1.298 8.832 75.562 75.562 0 0 1-1.83 7.634 50.902 50.902 0 0 1-2.4 6.494 36.767 36.767 0 0 1-3.03 5.443 30.615 30.615 0 0 1-3.737 4.53 30.938 30.938 0 0 1-4.525 3.713 37.038 37.038 0 0 1-5.469 3.026 49.07 49.07 0 0 1-6.501 2.397 75.942 75.942 0 0 1-7.653 1.818c-2.931.55-5.892.982-8.863 1.306-3.364.364-6.747.649-10.13.836-3.827.216-7.653.373-11.48.452-4.298.098-8.597.137-12.895.137H90.932c-4.298 0-8.597-.04-12.895-.137a320.093 320.093 0 0 1-11.48-.452 193.696 193.696 0 0 1-10.13-.836 116.71 116.71 0 0 1-8.863-1.306 75.942 75.942 0 0 1-7.653-1.818 49.07 49.07 0 0 1-6.501-2.397 37.038 37.038 0 0 1-5.47-3.026 30.938 30.938 0 0 1-4.524-3.714 30.615 30.615 0 0 1-3.738-4.529 36.766 36.766 0 0 1-3.03-5.443 50.903 50.903 0 0 1-2.4-6.494 75.567 75.567 0 0 1-1.829-7.634 121.69 121.69 0 0 1-1.298-8.832c-.374-3.37-.65-6.74-.846-10.12a317.535 317.535 0 0 1-.453-11.456 623.851 623.851 0 0 1-.137-12.87V97.014c0-4.293.049-8.577.137-12.87.079-3.822.236-7.634.453-11.456.197-3.38.472-6.75.846-10.11.324-2.967.757-5.914 1.298-8.842a75.568 75.568 0 0 1 1.83-7.634 51.46 51.46 0 0 1 2.4-6.494 37.27 37.27 0 0 1 3.03-5.443 31.05 31.05 0 0 1 3.737-4.52 30.384 30.384 0 0 1 4.525-3.723 37.039 37.039 0 0 1 5.469-3.026 50.494 50.494 0 0 1 6.501-2.397 75.943 75.943 0 0 1 7.653-1.818c2.931-.55 5.892-.982 8.863-1.297 3.364-.373 6.747-.648 10.13-.845a344.71 344.71 0 0 1 11.48-.452c4.298-.088 8.597-.137 12.895-.127H165.078z" fill-rule="evenodd" fill="url(#c)"/></g></svg>

<?xml version="1.0" standalone="no"?><!-- Generator: Gravit.io --><svg xmlns="http://www.w3.org/2000/svg" xmlns:xlink="http://www.w3.org/1999/xlink" style="isolation:isolate" viewBox="0 0 256 256" width="256" height="256"><g id="Group" filter="url(#RUBscUqzYAWjBFOUtTF8RjadzjAuFozV)"><linearGradient id="_lgradient_193" x1="0.4877374840587293" y1="0.9768544876455081" x2="0.4713874628037015" y2="0.00461158458075317" gradientTransform="matrix(244.648,0,0,228.338,5.676,11.947)" gradientUnits="userSpaceOnUse"><stop offset="0%" stop-opacity="1" style="stop-color:rgb(146,105,244)"/><stop offset="100%" stop-opacity="1" style="stop-color:rgb(9,212,223)"/></linearGradient><path d=" M 165.685 11.947 C 239.74 11.947 250.324 22.504 250.324 96.491 L 250.324 155.742 C 250.324 229.728 239.74 240.285 165.685 240.285 L 90.315 240.285 C 16.26 240.285 5.676 229.728 5.676 155.742 L 5.676 96.491 C 5.676 22.504 16.26 11.947 90.315 11.947 L 165.685 11.947 L 165.685 11.947 Z " id="Path" fill="url(#_lgradient_193)"/></g><defs><filter id="RUBscUqzYAWjBFOUtTF8RjadzjAuFozV" x="-200%" y="-200%" width="400%" height="400%" filterUnits="objectBoundingBox" color-interpolation-filters="sRGB"><feGaussianBlur xmlns="http://www.w3.org/2000/svg" in="SourceGraphic" stdDeviation="4.294"/><feOffset xmlns="http://www.w3.org/2000/svg" dx="0" dy="4" result="pf_100_offsetBlur"/><feFlood xmlns="http://www.w3.org/2000/svg" flood-color="#000000" flood-opacity="0.4"/><feComposite xmlns="http://www.w3.org/2000/svg" in2="pf_100_offsetBlur" operator="in" result="pf_100_dropShadow"/><feBlend xmlns="http://www.w3.org/2000/svg" in="SourceGraphic" in2="pf_100_dropShadow" mode="normal"/></filter></defs><path d=" M 188.296 194.921 C 186.979 194.74 185.766 194.104 184.868 193.124 C 182.82 190.927 179.452 184.471 176.688 177.445 C 175.137 173.502 172.167 164.817 172.167 164.224 C 172.167 164.037 174.126 162.743 176.521 161.349 L 180.875 158.813 L 181.558 159.455 C 184.262 161.992 192.049 173.624 196.589 181.905 C 198.405 185.217 198.587 185.69 198.58 187.056 C 198.57 188.874 197.998 190.145 196.38 191.945 C 194.44 194.103 191.096 195.333 188.296 194.921 L 188.296 194.921 Z  M 58.897 192.759 C 58.979 192.537 60.304 186.56 61.842 179.478 C 63.38 172.396 64.671 166.559 64.712 166.506 C 64.851 166.328 78.763 176.087 78.76 176.361 C 78.758 176.509 74.737 179.966 69.824 184.041 C 58.761 193.217 58.715 193.253 58.897 192.759 L 58.897 192.759 Z  M 73.631 167.773 C 69.754 165.093 66.613 162.787 66.651 162.649 C 66.741 162.318 100.043 105.947 100.318 105.66 C 100.469 105.502 115.021 114.652 115.703 115.334 C 115.85 115.481 81.224 172.52 80.95 172.584 C 80.801 172.619 77.507 170.454 73.631 167.773 Z  M 165.031 152.877 C 162.374 148.396 160.239 144.703 160.287 144.669 C 160.76 144.335 170.83 138.546 170.938 138.546 C 171.105 138.546 179.558 155.383 179.434 155.47 C 178.344 156.23 170.275 161.042 170.104 161.034 C 169.972 161.027 167.689 157.357 165.031 152.877 Z  M 55.746 152.032 C 55.654 151.249 55.615 144.941 55.659 138.013 L 55.74 125.417 L 69.7 125.504 C 77.379 125.548 83.693 125.618 83.733 125.657 C 83.772 125.692 80.077 131.966 75.521 139.592 L 67.239 153.458 L 55.914 153.458 L 55.746 152.032 L 55.746 152.032 Z  M 97.621 153.053 C 97.621 152.984 101.413 146.699 106.048 139.093 L 114.474 125.263 L 144.385 125.263 L 152.38 138.579 C 156.777 145.903 160.532 152.185 160.723 152.539 L 161.07 153.184 L 129.346 153.184 C 111.897 153.184 97.621 153.123 97.621 153.053 Z  M 179.228 147.152 C 176.987 142.542 174.742 137.933 172.492 133.327 L 168.685 125.534 L 179.033 125.533 C 184.724 125.533 191.851 125.455 194.87 125.355 L 200.359 125.177 L 200.359 153.184 L 182.156 153.184 L 179.228 147.153 L 179.228 147.152 L 179.228 147.152 Z  M 156.124 138.207 C 149.994 128.55 143.751 117.204 136.247 102.086 C 130.294 90.092 124.566 77.694 122.202 71.686 C 118.776 62.982 117.959 57.571 119.991 57.061 C 123.244 56.245 129.609 63.631 138.669 78.734 C 145.767 90.566 157.124 111.242 165.79 128.109 C 167.399 131.24 169.002 134.308 169.352 134.927 L 169.99 136.052 L 164.589 139.197 C 161.618 140.926 159.089 142.341 158.968 142.341 C 158.847 142.341 157.567 140.48 156.124 138.207 Z  M 109.202 108.284 L 101.672 103.319 L 102.383 102.193 C 102.774 101.574 104.746 98.429 106.765 95.206 C 108.005 93.22 109.253 91.237 110.507 89.26 C 110.546 89.216 113.938 91.387 118.045 94.091 L 125.513 99.007 L 124.401 100.817 C 123.79 101.813 121.951 104.824 120.315 107.507 C 118.678 110.191 117.202 112.581 117.035 112.818 C 116.773 113.189 115.699 112.567 109.202 108.284 L 109.202 108.284 Z  M 118.812 92.166 C 114.91 89.617 111.717 87.411 111.717 87.263 C 111.717 86.188 114.943 83.196 116.533 82.797 C 119.149 82.141 123.44 83.819 125.83 86.434 C 127.677 88.454 128.082 89.443 127.909 91.513 C 127.779 93.075 126.506 96.8 126.103 96.8 C 125.995 96.8 122.715 94.714 118.812 92.166 Z " id="Compound Path" fill="rgb(255,255,255)"/><g id="Group" style="opacity:0.4;"><g opacity="0.4"><linearGradient id="_lgradient_194" x1="0.5169999634453897" y1="0.0000011256553389474289" x2="0.5169999634453895" y2="0.9999988480691453" gradientTransform="matrix(244.651,0,0,228.341,5.68,11.95)" gradientUnits="userSpaceOnUse"><stop offset="0%" stop-opacity="1" style="stop-color:rgb(255,255,255)"/><stop offset="12.5%" stop-opacity="0.098" style="stop-color:rgb(255,255,255)"/><stop offset="92.499901888811%" stop-opacity="1" style="stop-color:rgb(0,0,0)"/><stop offset="99.99988480691454%" stop-opacity="1" style="stop-color:rgb(0,0,0)"/></linearGradient><path d=" M 165.068 11.951 C 169.396 11.941 173.724 11.991 178.052 12.089 C 181.927 12.167 185.802 12.315 189.678 12.541 C 193.131 12.737 196.583 13.022 200.026 13.395 C 203.086 13.73 206.144 14.181 209.174 14.741 C 211.887 15.241 214.573 15.881 217.22 16.657 C 219.618 17.354 221.965 18.217 224.243 19.241 C 226.355 20.182 228.383 21.303 230.303 22.591 C 232.143 23.831 233.862 25.242 235.437 26.806 C 237.002 28.375 238.415 30.089 239.657 31.925 C 240.943 33.842 242.068 35.863 243.02 37.967 C 244.041 40.242 244.908 42.582 245.617 44.972 C 246.394 47.616 247.034 50.299 247.535 53.009 C 248.097 56.034 248.547 59.078 248.883 62.136 C 249.257 65.575 249.542 69.014 249.739 72.462 C 249.965 76.323 250.112 80.194 250.201 84.055 C 250.289 88.378 250.339 92.701 250.329 97.015 L 250.329 155.225 C 250.339 159.549 250.289 163.862 250.201 168.185 C 250.116 172.052 249.962 175.917 249.739 179.778 C 249.542 183.227 249.257 186.67 248.883 190.104 C 248.547 193.165 248.097 196.213 247.535 199.241 C 247.033 201.948 246.393 204.627 245.617 207.268 C 244.91 209.659 244.042 211.999 243.02 214.273 C 242.07 216.378 240.945 218.399 239.656 220.315 C 238.417 222.153 237.004 223.867 235.436 225.434 C 233.861 226.998 232.142 228.409 230.302 229.649 C 228.382 230.937 226.355 232.058 224.243 232.999 C 221.963 234.022 219.617 234.888 217.22 235.593 C 214.574 236.37 211.888 237.007 209.174 237.499 C 206.143 238.065 203.091 238.514 200.026 238.845 C 196.583 239.218 193.131 239.503 189.678 239.699 C 185.803 239.925 181.928 240.073 178.052 240.161 C 173.724 240.249 169.396 240.299 165.068 240.289 L 90.942 240.289 C 86.614 240.299 82.286 240.249 77.958 240.161 C 74.08 240.076 70.204 239.922 66.332 239.699 C 62.876 239.503 59.425 239.218 55.984 238.845 C 52.919 238.514 49.867 238.065 46.836 237.499 C 44.122 237.007 41.436 236.37 38.79 235.593 C 36.393 234.888 34.047 234.022 31.767 232.999 C 29.655 232.058 27.627 230.937 25.707 229.649 C 23.867 228.409 22.148 226.998 20.573 225.434 C 19.005 223.867 17.592 222.153 16.353 220.315 C 15.065 218.399 13.94 216.378 12.99 214.273 C 11.968 211.999 11.1 209.659 10.393 207.268 C 9.617 204.627 8.977 201.948 8.475 199.241 C 7.913 196.213 7.463 193.165 7.127 190.104 C 6.753 186.67 6.468 183.227 6.271 179.778 C 6.048 175.917 5.894 172.052 5.809 168.185 C 5.717 163.866 5.674 159.545 5.681 155.225 L 5.681 97.015 C 5.671 92.701 5.721 88.378 5.809 84.055 C 5.898 80.195 6.045 76.323 6.271 72.462 C 6.468 69.014 6.753 65.575 7.127 62.136 C 7.462 59.081 7.914 56.035 8.475 53.009 C 8.976 50.299 9.616 47.616 10.393 44.972 C 11.102 42.582 11.969 40.242 12.99 37.967 C 13.942 35.863 15.067 33.842 16.354 31.925 C 17.596 30.089 19.009 28.375 20.574 26.806 C 22.149 25.242 23.868 23.831 25.708 22.591 C 27.628 21.303 29.655 20.182 31.767 19.241 C 34.045 18.217 36.392 17.354 38.79 16.657 C 41.437 15.881 44.123 15.241 46.836 14.741 C 49.868 14.18 52.919 13.731 55.984 13.395 C 59.427 13.022 62.879 12.737 66.332 12.541 C 70.207 12.315 74.082 12.167 77.958 12.089 C 82.286 11.991 86.614 11.941 90.942 11.951 L 165.068 11.951 L 165.068 11.951 Z  M 165.078 15.96 C 169.376 15.95 173.675 15.999 177.973 16.087 C 181.8 16.176 185.626 16.323 189.453 16.539 C 192.836 16.736 196.219 17.011 199.583 17.384 C 202.554 17.699 205.515 18.131 208.446 18.681 C 211.027 19.154 213.581 19.761 216.099 20.499 C 218.318 21.148 220.49 21.949 222.6 22.896 C 224.505 23.749 226.335 24.761 228.07 25.922 C 229.694 27.015 231.21 28.262 232.594 29.646 C 233.98 31.031 235.231 32.544 236.332 34.165 C 237.492 35.892 238.506 37.712 239.362 39.608 C 240.307 41.716 241.109 43.886 241.762 46.102 C 242.504 48.613 243.114 51.161 243.591 53.736 C 244.131 56.664 244.565 59.611 244.889 62.578 C 245.263 65.938 245.539 69.308 245.735 72.688 C 245.952 76.51 246.109 80.322 246.188 84.144 C 246.276 88.437 246.325 92.721 246.325 97.014 L 246.325 155.226 C 246.325 159.519 246.276 163.803 246.188 168.096 C 246.106 171.917 245.955 175.736 245.735 179.552 C 245.539 182.932 245.263 186.302 244.889 189.672 C 244.564 192.631 244.132 195.577 243.591 198.504 C 243.114 201.079 242.503 203.627 241.761 206.138 C 241.109 208.355 240.307 210.524 239.361 212.632 C 238.507 214.529 237.493 216.35 236.331 218.075 C 235.233 219.701 233.982 221.218 232.594 222.605 C 231.206 223.983 229.691 225.226 228.069 226.318 C 226.335 227.479 224.505 228.491 222.6 229.344 C 220.492 230.295 218.32 231.096 216.099 231.741 C 213.581 232.479 211.027 233.086 208.446 233.559 C 205.515 234.109 202.554 234.541 199.583 234.865 C 196.219 235.229 192.836 235.514 189.453 235.701 C 185.626 235.917 181.8 236.074 177.973 236.153 C 173.675 236.251 169.376 236.29 165.078 236.29 L 90.932 236.29 C 86.634 236.29 82.335 236.25 78.037 236.153 C 74.208 236.071 70.381 235.92 66.557 235.701 C 63.174 235.511 59.796 235.232 56.427 234.865 C 53.457 234.543 50.501 234.108 47.564 233.559 C 44.983 233.086 42.429 232.479 39.911 231.741 C 37.69 231.096 35.518 230.295 33.41 229.344 C 31.505 228.491 29.675 227.479 27.94 226.318 C 26.318 225.226 24.803 223.982 23.416 222.604 C 22.028 221.218 20.776 219.701 19.678 218.075 C 18.516 216.35 17.502 214.529 16.648 212.632 C 15.702 210.524 14.9 208.355 14.248 206.138 C 13.506 203.627 12.896 201.079 12.419 198.504 C 11.878 195.577 11.446 192.631 11.121 189.672 C 10.747 186.302 10.471 182.932 10.275 179.552 C 10.055 175.736 9.904 171.917 9.822 168.096 C 9.732 163.807 9.686 159.516 9.685 155.226 L 9.685 97.014 C 9.685 92.721 9.734 88.437 9.822 84.144 C 9.901 80.322 10.058 76.51 10.275 72.688 C 10.472 69.308 10.747 65.938 11.121 62.578 C 11.445 59.611 11.878 56.664 12.419 53.736 C 12.896 51.161 13.507 48.613 14.249 46.102 C 14.902 43.886 15.704 41.716 16.649 39.608 C 17.505 37.712 18.519 35.892 19.679 34.165 C 20.779 32.544 22.031 31.03 23.416 29.645 C 24.801 28.261 26.316 27.014 27.941 25.922 C 29.675 24.761 31.505 23.749 33.41 22.896 C 35.52 21.949 37.692 21.148 39.911 20.499 C 42.429 19.761 44.983 19.154 47.564 18.681 C 50.495 18.131 53.456 17.699 56.427 17.384 C 59.791 17.011 63.174 16.736 66.557 16.539 C 70.381 16.325 74.208 16.174 78.037 16.087 C 82.335 15.999 86.634 15.95 90.932 15.96 L 165.078 15.96 L 165.078 15.96 Z " fill-rule="evenodd" id="Compound Path" fill="url(#_lgradient_194)"/></g></g></svg>
